X: 41286
T: Tum Balalaika
R: waltz
M: 3/4
K: Eminor
B|B4 B2|B4 B2|B2 A2 G2|F6|
A4 A2|A4 A2|A2 G2 F2|E2 B2 G2|
E2 G2 B2|e4 e2|g2 f2 e2|B4 B2|
d2 c2 A2|F4 F2|A2 G2 F2|E6||
B2 B2 EB|B2 B2 EB|B2 A2 G2|F4 F2|
A2 A2 DA|A2 A2 DA|A2 G2 F2|E4 E2|
E2 G2 B2|e4 e2|g2 f2 e2|B4 B2|
d2 c2 A2|F4 F2|A2 G2 F2|E2 e2||

